public/assets/images/facebook.svg

<svg height="250" viewBox="0 0 251 250" width="251" xmlns="http://www.w3.org/2000/svg"><path d="m2243.2507 291h-222.40882c-7.62176 0-13.79021 6.177066-13.79021 13.797744v222.403436c0 7.619601 6.16845 13.797743 13.79021 13.797743h119.7412v-96.812427h-32.58623v-37.729837h32.58623v-27.824785c0-32.290187 19.72183-49.872971 48.52948-49.872971 13.79021 0 25.65345 1.026999 29.10907 1.486673v33.74564l-19.98019.008612c-15.66335 0-18.69914 7.444128-18.69914 18.367566v24.089265h37.36598l-4.86587 37.729837h-32.50011v96.812427h63.7084c7.62175 0 13.80097-6.178142 13.80097-13.797743v-222.403436c0-7.620678-6.17922-13.797744-13.80097-13.797744" fill="#fff" fill-rule="evenodd" transform="translate(-2007 -291)"/></svg>

<?xml version="1.0" encoding="UTF-8" standalone="no"?>
<svg width="251px" height="250px" viewBox="0 0 251 250" version="1.1" xmlns="http://www.w3.org/2000/svg" xmlns:xlink="http://www.w3.org/1999/xlink">
    <!-- Generator: Sketch 39.1 (31720) - http://www.bohemiancoding.com/sketch -->
    <title>facebook</title>
    <desc>Created with Sketch.</desc>
    <defs></defs>
    <g id="Page-1" stroke="none" stroke-width="1" fill="none" fill-rule="evenodd">
        <g id="Artboard" transform="translate(-2007.000000, -291.000000)" fill="#FFFFFF">
            <path d="M2243.2507,291 L2020.84188,291 C2013.22012,291 2007.05167,297.177066 2007.05167,304.797744 L2007.05167,527.20118 C2007.05167,534.820781 2013.22012,540.998923 2020.84188,540.998923 L2140.58308,540.998923 L2140.58308,444.186496 L2107.99685,444.186496 L2107.99685,406.456659 L2140.58308,406.456659 L2140.58308,378.631874 C2140.58308,346.341687 2160.30491,328.758903 2189.11256,328.758903 C2202.90277,328.758903 2214.76601,329.785902 2218.22163,330.245576 L2218.22163,363.991216 L2198.24144,363.999828 C2182.57809,363.999828 2179.5423,371.443956 2179.5423,382.367394 L2179.5423,406.456659 L2216.90828,406.456659 L2212.04241,444.186496 L2179.5423,444.186496 L2179.5423,540.998923 L2243.2507,540.998923 C2250.87245,540.998923 2257.05167,534.820781 2257.05167,527.20118 L2257.05167,304.797744 C2257.05167,297.177066 2250.87245,291 2243.2507,291" id="facebook"></path>
        </g>
    </g>
</svg>
